!!!OTL: Liuliu ge
!!!ARE: Asia, China,ˇHunan, Dongan
!! I, 562(1)
!!!SCT: C1476
!!!YEM: Copyright 1995, estate of Helmut Schaffrath.
**kern
*ICvox
*Ivox
*M2/4
*k[f#c#]
*D:
{8dd
16f#
16a
8b
16b
16a
=1
8f#
8dd
4b
=2
8a
16a
16b
8ee
16ee
16cc#
=3
2b}
=4
{16f#
16a
16f#
16a
8b
16b
16a
=5
8dd
8f#
4e
=6
8d
16d
16e
8a
16a
16f#
=7
2e}
==
!!!AGN: Shange. NannÅ qing
!!!ONB: ESAC (Essen Associative Code) Database: HUANG
!!!AMT: simple duple
!!!AIN: vox
!!!EED: Helmut Schaffrath
!!!EEV: 1.0
*-
